sprite_icons/live-preview.svg

<svg xmlns="http://www.w3.org/2000/svg" width="16" height="16" viewBox="0 0 16 16">
  <path fill="#000000" d="M13,1 C14.1046,1 15,1.89543 15,3 L15,13 C15,14.1046 14.1046,15 13,15 L3,15 C1.89543,15 1,14.1046 1,13 L1,3 C1,1.89543 1.89543,1 3,1 L13,1 Z M13,3 L3,3 L3,13 L13,13 L13,3 Z M6,5.98754 C6,5.18568 6.89643,4.70994 7.56049,5.15938 L10.534,7.17184 C11.12,7.56845 11.12,8.43155 10.534,8.82816 L7.56049,10.8406 C6.89642,11.2901 6,10.8143 6,10.0125 L6,5.98754 Z"/>
</svg>

<svg width="16" height="16" viewBox="0 0 16 16" xmlns="http://www.w3.org/2000/svg"><path fill-rule="evenodd" clip-rule="evenodd" d="M3 2.5h10a.5.5 0 0 1 .5.5v10a.5.5 0 0 1-.5.5H3a.5.5 0 0 1-.5-.5V3a.5.5 0 0 1 .5-.5ZM1 3a2 2 0 0 1 2-2h10a2 2 0 0 1 2 2v10a2 2 0 0 1-2 2H3a2 2 0 0 1-2-2V3Zm9.534 4.172a1 1 0 0 1 0 1.656L7.56 10.841A1 1 0 0 1 6 10.012V5.988a1 1 0 0 1 1.56-.829l2.974 2.013Z" fill="#000"/></svg>
